X: 84
T:Mazurka Limousin
M:3/4
L:1/8
R:Mazurka
Z:Steve Mansfield
K:Em
efe | c2cefe | B2B2AG | F2BAGF | G2Eefe | c2cefe | B2B2AG |
BAG2F2 |1E3 :|2 E6 |: EFGAB^c | d2A2F2 | EFGEAG |
F6 | EFGAB^c | d2A2F2 | EFGBAGF |1 E6 :|2 E3 ||
<end>
<start>
